map-marker-right-outline.svg

<svg fill="currentColor" viewBox="0 0 24 24"><path d="M9 6.5a2.5 2.5 0 0 1 0 5 2.5 2.5 0 0 1 0-5M9 2c3.87 0 7 3.13 7 7 0 5.25-7 13-7 13S2 14.25 2 9c0-3.87 3.13-7 7-7m0 2C6.24 4 4 6.24 4 9c0 1 0 3 5 9.71C14 12 14 10 14 9c0-2.76-2.24-5-5-5m9 13 5-5-5-5z"/></svg>

<svg  viewBox="0 0 24 24" fill="currentColor"><path  d="M9 6.5C10.38 6.5 11.5 7.62 11.5 9S10.38 11.5 9 11.5 6.5 10.38 6.5 9 7.62 6.5 9 6.5M9 2C12.87 2 16 5.13 16 9C16 14.25 9 22 9 22S2 14.25 2 9C2 5.13 5.13 2 9 2M9 4C6.24 4 4 6.24 4 9C4 10 4 12 9 18.71C14 12 14 10 14 9C14 6.24 11.76 4 9 4M18 17L23 12L18 7V17Z"/></svg>
